X:906
T:Ashplant, The
R:reel
H:Also in Edor #285, in F#dor #821
Z:id:hn-reel-906
M:C|
L:1/8
K:Ador
EA,~A,2 EDCD | EA,~A,2 G,A,CD | ~E3D EGAB | cAGE DECD :|
|: E2AE cEAE | E2AG EDCD | EGAB ~c3d | cAGE DECD :|

